X: 40124
T: Tie The Bonnet
R: reel
M: 4/4
K: Edorian
E3B BABG|EGBG FDAF|~E3B BABc|1 d2fe dBAF:|2 dfed dBAd||
|:BA (3Bcd e2fe|defg afdf|1 g2bg fdaf|(3efg fe dBAd:|2 g2bg effd|(3efg fe dBAF||

